X:2812
T:Not I
P:The Mill Burn
C:Kerr's Coll.
R:Reel (8x32)
B:RSCDS 28-12
Z:Anselm Lingnau <anselm@strathspey.org>
M:C
L:1/8
K:A
E|"A"A2cA "E7"GABc|"Bm"dFBA "E7"GBEG|"A"A2cA "D"Bcdf|"E7"ecdB "A"A/A/A AE|
  "A"A2cA "E7"GABc|"Bm"dFBA "E7"GBEG|"A"A2cA "D"Bcdf|"E7"ecdB "A"A/A/A A||
B|"A"Aaga "D"fedc|"Bm"dFBA "E7"GBEG|"A"Aaga "D"fedc|"E7"dfec "A"A/A/A AB|
  "A"Aaga "D"fedc|"Bm"dFBA "E7"GBEG|"A"Ac"E"Bd "A"ce"D"df|"E7"ecdB "A"A/A/A A|]